icons/svg/shields/h_waypoint_orange_shield.svg

<?xml version="1.0" encoding="UTF-8" standalone="no"?>
<!-- Generator: Adobe Illustrator 16.0.4, SVG Export Plug-In . SVG Version: 6.00 Build 0)  -->

<svg
   xmlns:dc="http://purl.org/dc/elements/1.1/"
   xmlns:cc="http://creativecommons.org/ns#"
   xmlns:rdf="http://www.w3.org/1999/02/22-rdf-syntax-ns#"
   xmlns:svg="http://www.w3.org/2000/svg"
   xmlns="http://www.w3.org/2000/svg"
   xmlns:sodipodi="http://sodipodi.sourceforge.net/DTD/sodipodi-0.dtd"
   xmlns:inkscape="http://www.inkscape.org/namespaces/inkscape"
   version="1.1"
   id="Слой_1"
   x="0px"
   y="0px"
   width="20"
   height="20"
   viewBox="0 0 19.999999 20"
   enable-background="new 0 0 17.113 17.143"
   xml:space="preserve"
   inkscape:version="0.91 r"
   sodipodi:docname="h_waypoint_orange_shield.svg"><metadata
     id="metadata13"><rdf:RDF><cc:Work
         rdf:about=""><dc:format>image/svg+xml</dc:format><dc:type
           rdf:resource="http://purl.org/dc/dcmitype/StillImage" /><dc:title /></cc:Work></rdf:RDF></metadata><defs
     id="defs11" /><sodipodi:namedview
     pagecolor="#ffffff"
     bordercolor="#666666"
     borderopacity="1"
     objecttolerance="10"
     gridtolerance="10"
     guidetolerance="10"
     inkscape:pageopacity="0"
     inkscape:pageshadow="2"
     inkscape:window-width="1332"
     inkscape:window-height="739"
     id="namedview9"
     showgrid="false"
     inkscape:zoom="13.766552"
     inkscape:cx="0.87550303"
     inkscape:cy="2.9597187"
     inkscape:window-x="34"
     inkscape:window-y="1024"
     inkscape:window-maximized="1"
     inkscape:current-layer="Слой_1" /><path
     d="m 9.9999989,1.4999999 c 4.7037121,0 8.5000001,3.796261 8.5000001,8.5004951 0,4.675521 -3.796288,8.499505 -8.5000001,8.499505 -4.7027178,0 -8.4999997,-3.823984 -8.4999997,-8.499505 0,-4.7042341 3.7972819,-8.5004951 8.4999997,-8.5004951 l 0,0 z"
     id="path3-9"
     style="color:#000000;clip-rule:evenodd;display:inline;overflow:visible;visibility:visible;opacity:1;isolation:auto;mix-blend-mode:normal;color-interpolation:sRGB;color-interpolation-filters:linearRGB;solid-color:#000000;solid-opacity:1;fill:#ffffff;fill-opacity:0.63684214;fill-rule:evenodd;stroke-width:1;stroke-linecap:butt;stroke-linejoin:miter;stroke-miterlimit:4;stroke-dasharray:none;stroke-dashoffset:0;stroke-opacity:1;color-rendering:auto;image-rendering:auto;shape-rendering:auto;text-rendering:auto;enable-background:accumulate"
     inkscape:connector-curvature="0" /><path
     d="m 9.9999989,1.9678152 c 4.4448331,0 8.0321851,3.5873257 8.0321851,8.0326528 0,4.418193 -3.587352,8.031716 -8.0321851,8.031716 -4.4438937,0 -8.0321841,-3.613523 -8.0321841,-8.031716 0,-4.4453271 3.5882904,-8.0326528 8.0321841,-8.0326528 l 0,0 z"
     id="path3"
     style="clip-rule:evenodd;fill:#ff5722;fill-opacity:1;fill-rule:evenodd"
     inkscape:connector-curvature="0" /></svg>

<svg width="20" height="20" viewBox="0 0 20 20" fill="none" xmlns="http://www.w3.org/2000/svg">
<path fill-rule="evenodd" clip-rule="evenodd" d="M10 1.5C14.7037 1.5 18.5 5.29626 18.5 10.0005C18.5 14.676 14.7037 18.5 10 18.5C5.29728 18.5 1.5 14.676 1.5 10.0005C1.5 5.29626 5.29728 1.5 10 1.5V1.5Z" fill="white" fill-opacity="0.636842"/>
<path fill-rule="evenodd" clip-rule="evenodd" d="M10 1.96783C14.4448 1.96783 18.0322 5.55516 18.0322 10.0005C18.0322 14.4187 14.4448 18.0322 10 18.0322C5.55611 18.0322 1.96782 14.4187 1.96782 10.0005C1.96782 5.55516 5.55611 1.96783 10 1.96783V1.96783Z" fill="#FF5722"/>
</svg>
